lib/preview/nrk-logo-preview-nrk-nyheter-title-below.svg

<svg width="64" height="41" viewBox="0 0 64 41" fill="none" xmlns="http://www.w3.org/2000/svg">
<path d="M-6.10352e-05 18V6.00109H3.93713V18H-6.10352e-05ZM9.29375 7.91078L11.558 18H7.24911L4.54543 6.00109H6.96212C7.51629 5.9939 8.054 6.18925 8.47444 6.55039C8.89556 6.89638 9.18489 7.3767 9.29375 7.91078ZM12.1495 18V6.00109H16.0866V18H12.1495ZM19.0604 10.5641C18.6361 10.5682 18.2187 10.4572 17.8525 10.243C17.4912 10.0341 17.191 9.73396 16.9822 9.3726C16.7677 9.00633 16.6567 8.58876 16.6609 8.16432C16.656 7.74246 16.7672 7.32738 16.9822 6.96443C17.1933 6.60699 17.493 6.31009 17.8525 6.10252C18.2188 5.8885 18.6362 5.77751 19.0604 5.78138C19.4821 5.77684 19.8971 5.88793 20.2602 6.10252C20.616 6.31191 20.9126 6.60856 21.122 6.96443C21.3368 7.32748 21.4479 7.74249 21.4433 8.16432C21.4472 8.58873 21.3362 9.00623 21.122 9.3726C20.9148 9.73238 20.6179 10.0323 20.2602 10.243C19.897 10.458 19.4818 10.5691 19.0599 10.5641H19.0604ZM22.0516 18V6.00109H25.9891V18H22.0516ZM30.9737 12.5582C30.9848 12.5699 31.0692 12.7079 31.2271 12.9723C31.385 13.2367 31.5906 13.5747 31.8439 13.9863C32.0973 14.3977 32.3648 14.8343 32.6463 15.296C32.9277 15.7577 33.1925 16.1944 33.4408 16.6058C33.688 17.0172 33.9697 17.4819 34.2857 18H29.9598C29.6892 17.5606 29.4441 17.1635 29.2244 16.8086C29.0047 16.4537 28.7712 16.0706 28.5238 15.6594C28.2758 15.2485 28.0305 14.8485 27.7881 14.4595C27.5457 14.0704 27.3374 13.7296 27.1632 13.4371C26.9882 13.1443 26.867 12.9471 26.7996 12.8455C26.6325 12.5934 26.5336 12.3023 26.5126 12.0005C26.5294 11.7109 26.6225 11.431 26.7827 11.1891C26.8503 11.0764 26.9742 10.8764 27.1545 10.5891C27.3347 10.3018 27.5459 9.96105 27.7881 9.56672C28.0303 9.17239 28.2756 8.7696 28.5238 8.35837C28.772 7.94715 29.0055 7.56124 29.2244 7.20071C29.4445 6.84055 29.6896 6.44059 29.9598 6.00081H34.2857L30.9396 11.4595C30.836 11.6216 30.7777 11.8083 30.7706 12.0005C30.7817 12.2023 30.8521 12.3963 30.9731 12.5582H30.9737Z" fill="white"/>
<path d="M8.59564 32.2816L1.37601 23.1429H0V35.1548H1.59685V26.0111L8.83377 35.1548H10.2097V23.1429H8.59592L8.59564 32.2816Z" fill="white"/>
<path d="M18.6524 26.6112L18.6392 32.947C18.5154 33.0189 18.392 33.088 18.2711 33.15C18.0647 33.2559 17.8519 33.349 17.6341 33.4289C17.4277 33.5056 17.2144 33.5623 16.997 33.5981C16.7752 33.6329 16.5509 33.6499 16.3263 33.6488C15.9787 33.6627 15.6334 33.5869 15.324 33.4286C15.0558 33.2738 14.849 33.0321 14.738 32.7437C14.5971 32.3739 14.5305 31.98 14.5423 31.5845V26.3568L12.8096 26.6106V31.9226C12.7889 32.564 12.8988 33.2029 13.1326 33.8008C13.3203 34.267 13.6659 34.653 14.1095 34.892C14.6134 35.1384 15.1704 35.2574 15.7315 35.2386C16.2 35.2417 16.6655 35.1646 17.1077 35.0105C17.5439 34.8551 17.9557 34.6385 18.3305 34.3673C18.4339 34.2931 18.5361 34.2144 18.638 34.1327L18.6363 34.8658C18.6363 35.7117 18.4381 36.3546 18.0417 36.7945C17.6454 37.2344 16.9716 37.4543 16.0203 37.4543C15.7596 37.4543 15.4935 37.4429 15.2218 37.4202C14.9506 37.3978 14.6811 37.3584 14.4149 37.302C14.1488 37.2456 13.8797 37.1751 13.6077 37.0905C13.3357 37.0059 13.064 36.9073 12.7924 36.7945L12.9795 38.3002C13.206 38.39 13.4437 38.4718 13.6927 38.5455C13.9416 38.6192 14.1964 38.6812 14.4571 38.7316C14.7176 38.7824 14.9894 38.8218 15.2725 38.85C15.5556 38.8782 15.8445 38.8922 16.1392 38.892C16.7537 38.9024 17.3654 38.8081 17.948 38.6132C18.4411 38.4468 18.8949 38.1819 19.2815 37.8347C19.6426 37.5038 19.9244 37.0963 20.1057 36.6422C20.2978 36.1518 20.393 35.629 20.386 35.1027L20.3687 26.3557L18.6524 26.6112Z" fill="white"/>
<path d="M29.5578 26.6955C29.0587 26.443 28.5035 26.3208 27.944 26.3405C27.4454 26.3404 26.9497 26.4174 26.4748 26.5686C25.9922 26.7214 25.5323 26.9377 25.1071 27.2118C24.9791 27.2938 24.8554 27.381 24.7334 27.4737V22.3817L23.0006 22.6354V35.1548H24.7334V28.6538C24.8676 28.5805 25.0052 28.5105 25.1493 28.4468C25.3897 28.3411 25.6366 28.2507 25.8885 28.1761C26.1311 28.1043 26.3778 28.0478 26.6275 28.0069C26.8605 27.9683 27.0962 27.9485 27.3324 27.9477C27.604 27.942 27.8745 27.985 28.1308 28.0746C28.347 28.1524 28.5399 28.2833 28.6917 28.4552C28.8476 28.6419 28.9578 28.8619 29.0139 29.0981C29.0868 29.397 29.1212 29.7039 29.1164 30.0114V35.1546H30.8489V29.6562C30.8715 29.0148 30.7615 28.3756 30.5258 27.7782C30.334 27.3195 29.9931 26.9382 29.5578 26.6955Z" fill="white"/>
<path d="M40.0053 27.6178C39.6791 27.1969 39.2488 26.8674 38.7565 26.6617C38.2096 26.4396 37.623 26.3303 37.0325 26.3405C36.4374 26.3304 35.847 26.4457 35.2998 26.6789C34.8021 26.8958 34.3584 27.2192 34.0003 27.626C33.6313 28.0536 33.3538 28.5516 33.1846 29.0897C32.991 29.7054 32.8965 30.3478 32.9046 30.993C32.8805 31.8082 33.0521 32.6173 33.4054 33.3531C33.7283 33.9906 34.2498 34.507 34.8918 34.825C35.6452 35.1784 36.4719 35.3495 37.3043 35.3241C37.7047 35.3273 38.1049 35.3019 38.5016 35.2479C38.8333 35.2003 39.1602 35.1238 39.4785 35.0195C39.7941 34.9139 40.1009 34.7838 40.396 34.6304L40.5147 33.3277C40.2995 33.4066 40.0815 33.4856 39.8606 33.5645C39.6398 33.6435 39.4105 33.714 39.1727 33.776C38.9328 33.8386 38.6886 33.8838 38.4422 33.9111C38.194 33.9395 37.9445 33.9537 37.6948 33.9537C37.2488 33.9608 36.8037 33.9125 36.3698 33.8099C36.0197 33.7264 35.6958 33.5579 35.4272 33.3192C35.1557 33.0618 34.9566 32.7381 34.8496 32.3803C34.7387 32.0179 34.6763 31.6424 34.6642 31.2637H40.8034C40.887 30.5639 40.8554 29.8552 40.71 29.1656C40.5905 28.6049 40.3501 28.0767 40.0053 27.6178ZM35.7245 28.0236C36.1231 27.7827 36.5833 27.6623 37.0492 27.677C37.5158 27.6538 37.9766 27.7879 38.3572 28.0577C38.6956 28.3266 38.9371 28.6977 39.0453 29.1151C39.13 29.4238 39.1717 29.7425 39.1693 30.0625H34.7016C34.7331 29.7251 34.8055 29.3928 34.9173 29.0728C35.0624 28.6437 35.3463 28.2747 35.7245 28.0236Z" fill="white"/>
<path d="M47.4033 33.7926L47.1145 33.8437C47.0218 33.8601 46.9282 33.8714 46.8342 33.8775C46.7434 33.8834 46.6584 33.8857 46.5794 33.8857C46.319 33.8929 46.0605 33.8408 45.8235 33.7334C45.6195 33.6374 45.4505 33.4809 45.3393 33.2854C45.2203 33.0647 45.1617 32.8167 45.1694 32.5664V27.88H47.5646L47.7515 26.5266H45.1694V23.8532L43.4368 24.4626V26.5266H42.1287L41.9416 27.88H43.4368V32.9216C43.429 33.2578 43.4808 33.5927 43.5897 33.911C43.677 34.1631 43.8126 34.3959 43.9888 34.5965C44.1504 34.7752 44.347 34.9191 44.5664 35.0195C44.7911 35.122 45.0278 35.1958 45.2711 35.2391C45.5121 35.2835 45.7565 35.3061 46.0015 35.3068C46.1827 35.3068 46.3612 35.3012 46.5369 35.2902C46.7127 35.2791 46.874 35.2621 47.0211 35.2391C47.168 35.2166 47.307 35.1912 47.4372 35.1633C47.5675 35.1354 47.6777 35.1097 47.7685 35.0869L47.8704 33.6829C47.8043 33.7084 47.7361 33.7282 47.6666 33.7421C47.587 33.7588 47.4993 33.776 47.4033 33.7926Z" fill="white"/>
<path d="M55.9735 27.6178C55.6473 27.1969 55.2171 26.8675 54.7248 26.6617C54.1778 26.4395 53.5913 26.3303 53.0007 26.3405C52.4056 26.3305 51.8151 26.4458 51.2679 26.6789C50.7703 26.8959 50.3266 27.2193 49.9684 27.626C49.5995 28.0536 49.3221 28.5515 49.153 29.0894C48.9594 29.7052 48.8649 30.3475 48.873 30.9927C48.849 31.8079 49.0207 32.617 49.3738 33.3528C49.6967 33.9904 50.2182 34.5068 50.8602 34.8247C51.6137 35.1781 52.4403 35.3491 53.2727 35.3238C53.6732 35.3271 54.0733 35.3016 54.4701 35.2476C54.8018 35.1999 55.1287 35.1235 55.4471 35.0192C55.7627 34.9137 56.0694 34.7836 56.3644 34.6301L56.4834 33.3274C56.268 33.4064 56.0499 33.4853 55.8291 33.5643C55.6082 33.6432 55.3789 33.7137 55.1413 33.7757C54.9014 33.8384 54.6573 33.8835 54.4109 33.9108C54.1628 33.9392 53.9132 33.9534 53.6634 33.9534C53.2174 33.9606 52.7722 33.9123 52.3381 33.8096C51.9881 33.726 51.6643 33.5575 51.3956 33.319C51.1242 33.0614 50.9252 32.7378 50.8181 32.38C50.7071 32.0176 50.6448 31.6421 50.6329 31.2634H56.7718C56.8555 30.5636 56.824 29.8549 56.6784 29.1653C56.5588 28.6047 56.3183 28.0767 55.9735 27.6178ZM51.6926 28.0236C52.0912 27.7826 52.5516 27.6623 53.0176 27.677C53.4842 27.6538 53.945 27.788 54.3257 28.0577C54.6639 28.3266 54.9053 28.6977 55.0134 29.1151C55.0984 29.4237 55.1401 29.7425 55.1374 30.0625H50.67C50.7014 29.7252 50.7738 29.3928 50.8854 29.0728C51.0306 28.6438 51.3145 28.2748 51.6926 28.0236Z" fill="white"/>
<path d="M62.445 26.4671C62.1274 26.5519 61.8241 26.683 61.545 26.8562C61.2551 27.0363 60.9871 27.2492 60.7463 27.4907C60.7064 27.5304 60.6673 27.5752 60.6274 27.6173V26.3569L58.8947 26.6106V35.1543H60.6274V28.7629C60.7563 28.6734 60.8896 28.5904 61.0269 28.5142C61.1968 28.421 61.3728 28.339 61.5535 28.2689C61.7287 28.2008 61.907 28.1416 62.0886 28.0913C62.2749 28.0395 62.4651 28.0027 62.6574 27.9813C62.8633 27.9586 63.0708 27.9528 63.2777 27.9641L63.4815 26.374C63.1332 26.3491 62.7832 26.3806 62.445 26.4671Z" fill="white"/>
</svg>

<svg xmlns="http://www.w3.org/2000/svg" viewBox="0 0 64 41"><path fill="#fff" d="M0 18V6.001h3.937V18H0ZM9.294 7.91 11.558 18H7.249L4.545 6.001h2.417a2.276 2.276 0 0 1 1.512.55c.422.345.71.826.82 1.36ZM12.149 18V6.001h3.938V18h-3.938Zm6.911-7.436a2.382 2.382 0 0 1-2.4-2.4 2.302 2.302 0 0 1 .322-1.2 2.41 2.41 0 0 1 3.278-.861c.356.209.653.506.862.861.215.363.326.778.321 1.2a2.4 2.4 0 0 1-1.183 2.079 2.303 2.303 0 0 1-1.2.321ZM22.052 18V6.001h3.937V18h-3.937Zm8.922-5.442c.01.012.095.15.253.414.158.265.364.603.617 1.014a339.194 339.194 0 0 1 1.597 2.62c.247.411.529.876.845 1.394H29.96c-.27-.44-.516-.837-.736-1.191-.22-.355-.453-.738-.7-1.15-.248-.41-.494-.81-.736-1.2-.242-.389-.45-.73-.625-1.022-.175-.293-.296-.49-.363-.591a1.75 1.75 0 0 1-.287-.845c.016-.29.11-.57.27-.812.067-.113.191-.313.371-.6s.392-.628.634-1.022c.242-.395.488-.797.736-1.209l.7-1.157.736-1.2h4.326l-3.346 5.458a1.078 1.078 0 0 0-.17.542c.012.201.082.395.203.557ZM8.596 32.282l-7.22-9.14H0v12.013h1.597V26.01l7.237 9.144h1.376V23.143H8.596v9.139ZM18.652 26.611l-.013 6.336a8.104 8.104 0 0 1-.368.203c-.206.106-.42.199-.637.279-.206.077-.42.133-.637.17a4.195 4.195 0 0 1-.67.05 2.023 2.023 0 0 1-1.003-.22 1.351 1.351 0 0 1-.586-.685 3.004 3.004 0 0 1-.196-1.16v-5.227l-1.732.254v5.312c-.021.641.089 1.28.323 1.878.187.466.533.852.977 1.091a3.43 3.43 0 0 0 1.622.347 4.1 4.1 0 0 0 1.376-.228 4.88 4.88 0 0 0 1.223-.644c.103-.074.205-.153.307-.234l-.002.733c0 .846-.198 1.489-.594 1.928-.397.44-1.07.66-2.022.66a9.59 9.59 0 0 1-.798-.034 6.457 6.457 0 0 1-.807-.118 9.005 9.005 0 0 1-1.623-.508l.188 1.506a8.413 8.413 0 0 0 2.293.55c.283.028.572.042.866.042a5.413 5.413 0 0 0 1.809-.279 3.827 3.827 0 0 0 1.334-.778c.36-.331.642-.739.824-1.193.192-.49.287-1.013.28-1.54l-.017-8.746-1.717.255ZM29.558 26.695a3.316 3.316 0 0 0-1.614-.355 4.84 4.84 0 0 0-1.47.229 5.7 5.7 0 0 0-1.74.905v-5.092L23 22.635v12.52h1.732v-6.501a5.534 5.534 0 0 1 1.155-.478c.243-.072.49-.128.74-.17.232-.038.468-.058.704-.058.272-.006.543.037.799.127.216.077.409.208.56.38.157.187.267.407.323.643.073.299.107.606.102.913v5.144h1.733v-5.499a4.669 4.669 0 0 0-.323-1.878 2.221 2.221 0 0 0-.968-1.082ZM40.005 27.618a3.084 3.084 0 0 0-1.248-.956 4.381 4.381 0 0 0-1.724-.322 4.236 4.236 0 0 0-1.733.339c-.498.217-.942.54-1.3.947a4.142 4.142 0 0 0-.815 1.464 6.09 6.09 0 0 0-.28 1.903 5.103 5.103 0 0 0 .5 2.36 3.315 3.315 0 0 0 1.487 1.472 5.3 5.3 0 0 0 2.412.5c.4.002.8-.023 1.198-.077a5.77 5.77 0 0 0 1.894-.618l.119-1.302c-.215.079-.434.158-.654.236-.221.08-.45.15-.688.212-.24.063-.484.108-.73.135a6.574 6.574 0 0 1-.748.043 5.386 5.386 0 0 1-1.325-.144 2.18 2.18 0 0 1-.943-.49 2.138 2.138 0 0 1-.577-.94 4.284 4.284 0 0 1-.186-1.116h6.14c.083-.7.051-1.409-.094-2.098a3.946 3.946 0 0 0-.705-1.548Zm-4.28.406c.398-.241.858-.362 1.324-.347.467-.023.928.11 1.308.38.339.27.58.64.688 1.058.085.309.127.628.124.948h-4.467c.031-.338.104-.67.215-.99.145-.43.43-.798.807-1.05ZM47.403 33.793l-.288.05a2.561 2.561 0 0 1-.28.034c-.092.006-.177.009-.256.009a1.716 1.716 0 0 1-.755-.153 1.092 1.092 0 0 1-.485-.448 1.423 1.423 0 0 1-.17-.719V27.88h2.396l.187-1.353h-2.583v-2.674l-1.732.61v2.064h-1.308l-.187 1.353h1.495v5.042c-.008.336.044.67.153.989.087.252.223.485.399.685.161.18.358.323.577.424.225.102.462.176.705.22.241.043.486.066.73.067.182 0 .36-.006.536-.017.176-.01.337-.028.484-.05a7.176 7.176 0 0 0 .748-.153l.101-1.404a1.244 1.244 0 0 1-.203.06c-.08.016-.168.033-.264.05ZM55.974 27.618a3.085 3.085 0 0 0-1.25-.956 4.38 4.38 0 0 0-1.723-.322 4.24 4.24 0 0 0-1.733.339c-.498.217-.941.54-1.3.947a4.142 4.142 0 0 0-.815 1.463 6.09 6.09 0 0 0-.28 1.904 5.107 5.107 0 0 0 .5 2.36 3.314 3.314 0 0 0 1.487 1.472c.754.353 1.58.524 2.413.499.4.003.8-.022 1.197-.076a5.782 5.782 0 0 0 1.894-.618l.12-1.303c-.216.08-.434.158-.655.237-.22.08-.45.15-.688.212-.24.062-.484.107-.73.135a6.573 6.573 0 0 1-.748.042 5.38 5.38 0 0 1-1.325-.143 2.184 2.184 0 0 1-.942-.491 2.141 2.141 0 0 1-.578-.939 4.27 4.27 0 0 1-.185-1.117h6.139c.084-.7.052-1.408-.094-2.098a3.947 3.947 0 0 0-.704-1.547Zm-4.281.406a2.414 2.414 0 0 1 1.325-.347c.466-.023.927.111 1.308.38.338.27.58.64.687 1.058.085.309.127.628.124.948H50.67c.031-.338.104-.67.215-.99.146-.43.43-.798.808-1.05ZM62.445 26.467c-.318.085-.62.216-.9.39-.29.18-.558.392-.799.634-.04.04-.079.084-.119.126v-1.26l-1.732.254v8.543h1.732v-6.391a4.416 4.416 0 0 1 .926-.494c.176-.068.354-.127.536-.178a3.616 3.616 0 0 1 1.189-.127l.203-1.59a3.248 3.248 0 0 0-1.036.093Z"/></svg>
